!!!ONB: MCCC : IMR0030_03 : Extracted Monophonic Melody
!!!COM: Ravel, Maurice
!!!OPR: Miroirs
!!!OMV: 3
!!!SCT: M.43
!!!ODT: 1903///
**kern
*staff1
=1
*clefG2
*k[b-e-a-]
*E-:
*M3/4
2eee
4ddd-
=2
2ddd-
4ddd-
=3
4aa-
4gg-
4eee[
=4
4eee]
2ddd-
=5
4ddd-
4ddd-
4aa-
=6
4eee[
2eee]
=7
2.ddd-
=8
4ddd-
4aa-
4gg-
=9
2eee
4ddd-
=10
2ddd-
4ddd-
=11
4aa-
4gg-
4eee[
=12
4eee]
2ddd-
=13
4ddd-
4ddd-
4aa-
=14
4eee[
2eee]
=15
2.ddd-
=16
4ddd-
4aa-
4gg-
=17
2eee
4ddd-
=18
2ddd-
4ddd-
=19
4aa-
4gg-
4eee[
=20
4eee]
2ddd-
=21
4ddd-
4ddd-
4aa-
=22
4eee[
2eee]
=23
2.ddd-
=24
4ddd-
4aa-
4gg-
=25
2eee
4ddd-
=26
2ddd-
4ddd-
=27
4aa-
4gg-
4gg-
=28
4gg-
2ee
=29
2g-
4e[
=30
4e]
4r
4r
=31
2ee
4cc
=32
4gg-[
2gg-]
=33
2ee
4g-
=34
4g-
2e
=35
4r
4r
4ee
=36
4ee
2cc
=37
2.r
=38
4r
4r
4e[
=39
4e]
4d-
4eee[
=40
4eee]
2ddd-
=41
4ddd-
4ddd-
4aa-
=42
4eee[
2eee]
=43
2.ddd-
=44
4ddd-
4aa-
4gg-
=45
2eee
4ddd-
=46
2ddd-
4ddd-
=47
4aa-
4gg-
4eee[
=48
4eee]
2ddd-
=49
4ddd-
4ddd-
4aa-
=50
4eee[
2eee]
=51
2.ddd-
=52
4ddd-
4aa-
4gg-
=53
2eee
4ddd-
=54
2ddd-
4ddd-
=55
4aa-
4gg-
4eee[
=56
4eee]
2ddd-
=57
4ddd-
4ddd-
4aa-
=58
4aa-[
2aa-]
=59
2gg-
4a-
=60
4a-
2g-
=61
4r
4r
4gg-
=62
4gg-
2dd
=63
2aa-
4gg-
=64
4gg-
2a-
=65
2g-
4r
=66
2gg-
4gg-
=67
2dd
4r
=68
2.r
=69
2g-
4d[
=70
4d]
4r
4r
=71
2.r
=72
2.r
=73
4r
4r
4G-[
=74
2.G-]
=75
2D
4r
=76
2.r
=77
2.r
=78
2.r
=79
2.r
=80
2.r
=81
8AAAA
8BBBB-
4BBB-
4BB-
=82
4bbb-[
2bbb-]
=83
4r
4r
4aaa-
=84
2.aaa-[
=85
2.aaa-]
=86
4r
2ggg-[
=87
4ggg-]
4r
4eee
=88
2.eee[
=89
2.eee]
=90
4r
4r
4ddd[
=91
4ddd]
4r
4r
=92
2.ccc[
=93
4ccc]
2bb[
=94
2bb]
4bb-[
=95
2.bb-]
=96
2.a-
=97
2.a-[
=98
2a-]
4dd-[
=99
2.dd-]
=100
2.dd
=101
2.dd[
=102
2dd]
4ee[
=103
2.ee]
=104
2.ff[
=105
4ff]
2aa-[
=106
2aa-]
4bb[
=107
2.bb]
=108
2.ccc[
=109
4ccc]
2ddd[
=110
2ddd]
4eee
=111
2eee
4ggg-
=112
2.ggg-[
=113
4ggg-]
2aaa-[
=114
2aaa-]
4bbb-[
=115
2.bbb-]
=116
2.cccc[
=117
4cccc]
2dddd
=118
4.dddd[
16dddd]
16eeee-
16ffff
16eeee-
16ffff
16eeee-
=119
16ffff
16eeee-
16ffff
16eeee-
12ffff
12eeee-
12ffff
16eeee-
16ffff
16eeee-
16ffff
=120
16eeee-
16ffff
8eeee-
32ffff
32eeee-
16ffff
16eeee-
16ffff
16eeee-
16ffff
16eeee-
16ffff
=121
16eeee-
16ffff
16eeee-
16ffff
16eeee-
16ffff
16eeee-
16ffff[
48ffff]
16eeee-
24ffff
16eeee-
16ffff
=122
16eeee-
16ffff
16eeee-
16ffff
16eeee-
16ffff
16eeee-
16ffff
4bbb[
=123
2bbb]
4r
=124
2.r
=125
2.r
=126
2.r
=127
2.r
=128
2.r
=129
4r
16eeee-
16ffff
16eeee-
16ffff[
8ffff]
16ffff
16eeee-
=130
16ffff
16eeee-
16ffff
16eeee-[
24eeee-]
24ffff
12eeee-
12ffff
16eeee-
16ffff
16eeee-
16ffff
=131
16eeee-
16ffff
16eeee-
16ffff
16eeee-
16ffff
16eeee-
16ffff
16eeee-
16ffff
16eeee-
16ffff
=132
16eeee-
16ffff
16eeee-
16ffff
16eeee-
16ffff
16eeee-
16ffff
16eeee-
16ffff
16eeee-
16ffff
=133
12eeee-
12ffff
24eeee-
24ffff[
8ffff]
8ffff
4bbb[
=134
4bbb]
4r
4r
=135
2.r
=136
2.r
=137
2.r
=138
2.r
=139
2.r
=140
4r
16eeee-
16ffff
16eeee-
16ffff[
8ffff]
16ffff
16eeee-
=141
16ffff
16eeee-
16ffff
16eeee-[
24eeee-]
24ffff
12eeee-
12ffff
16eeee-
16ffff
16eeee-
16ffff
=142
12eeee-
12ffff
12eeee-
16ffff
16eeee-
16ffff
16eeee-
12ffff
12eeee-
12ffff
=143
16eeee-
16ffff
16eeee-
16ffff
16eeee-
16ffff
16eeee-
16ffff
16eeee-
16ffff
16eeee-
16ffff
=144
16eeee-
16ffff
16eeee-
16ffff
16eeee-
16ffff
16eeee-
16ffff
16eeee-
16ffff
16eeee-
16ffff[
=145
24ffff]
24eeee-
12ffff
12eeee-
16ffff
16eeee-
16ffff
16eeee-
16ffff
16eeee-
16ffff
16eeee-
=146
12ffff
6dddd-
2dddd-[
=147
2dddd-]
4r
=148
2.r
=149
2.r
=150
2.r
=151
2.r
=152
2.r
=153
2.r
=154
2.r
=155
2.r
=156
2.r
=157
2.r
=158
2.r
=159
2.r
=160
2.g-[
=161
4g-]
2f
=162
2.f
=163
2.f
=164
2.f[
=165
4f]
2c[
=166
2c]
4e-
=167
4e-
8.c
16A
24d-
12e
8r
=168
2.aa
=169
4r
4.bb[
16bb]
16aa[
=170
8aa]
8ee-
12b
12r
12a
12g-
12e-
12B
=171
8r
8B
8G-
8E-
8BB
8BB
=172
8GG-
8EE-
4BBB
4r
=173
4r
32.A
64d-[
32d-]
32e[
8e]
4aa[
=174
2aa]
4r
=175
4.bb[
16bb]
16aa[
8aa]
8ee-
=176
8.b
16a[
8a]
8e-
4B
=177
8B
8G-
8E-
8BB
8BB
8GG-
=178
8EE-
8BBB
4r
4r
=179
4r
2A
=180
2.A[
=181
2.A]
=182
2.B[
=183
2B]
4r
=184
2.r
=185
2.r
=186
2.r
=187
2.r
=188
2.r
=189
2.r
=190
2.r
=191
2.r
=192
2.r
=193
2.r
=194
2.r
=195
2.r
=196
2.r
=197
2.r
=198
2.r
=199
2.r
=200
2.r
=201
2.r
=202
2.r
=203
2.r
=204
2.r
=205
2.bb
=206
2.aa-
=207
4aa-
4ee-
4dd-
=208
2bb
4aa-
=209
2aa-
4aa-
=210
4ee-
4dd-
4bb[
=211
4bb]
2aa-
=212
4aa-
4aa-
4ee-
=213
4bb[
2bb]
=214
2.aa-
=215
4aa-
4ee-
4dd-
=216
2bb
4aa-
=217
2aa-
4aa-
=218
4ee-
4dd-
4bb[
=219
4bb]
2aa-
=220
4aa-
4aa-
4ee-
=221
4bb[
2bb]
=222
2.aa-
=223
4aa-
4ee-
4dd-
=224
2.r
=225
2.r
=226
2.r
=227
2.r
=228
2.r
=229
2.r
=230
2.r
=231
2.r
=232
2.r
=233
2.r
=234
2.r
=235
2.r
=236
2.r
=237
2.r
=238
2.r
=239
2.r
=240
2.r
=241
2.r
=242
2.r
=243
2.r
=244
2.r
=245
2.r
=246
2.r
=247
2.r
=248
2.r
=249
2.r
=250
2.r
=251
2.r
=252
2.r
=253
2.r
=254
2.r
=255
2.r
=256
2.r
=257
2.r
=258
2.r
=259
2.r
=260
2.r
=261
2.r
=262
2.r
=263
4r
2f[
=264
2f]
4e-
=265
2.e-
=266
2.e-
=267
2.e-[
=268
2e-]
4d[
=269
2.d]
=270
2f
4d[
=271
4d]
12A
12A
12g-
12a
12a
12aa
=272
12a
12aa
12gg-
12a
12a
12g-
12A
12A
12A
=273
12g-
12a
12g-
12A
12G-
12AA
12G-
12A
12G-
=274
12AA
12GG-
12r
4r
4r
=275
4r
4r
4f[
=276
2f]
4d
=277
12a
12a
12gg-
12aa
12aa
12ggg-
12aaa
12aa
12aaa
=278
12ggg-
12aa
12aa
12gg-
12a
12a
12a
12gg-
12aa
=279
12gg-
12a
12g-
12A
12g-
12a
12g-
12A
12G-
=280
12A
12A
12g-
12a
12g-
12a
12gg-
12aa
12gg-
=281
12aa
12ggg-
12aaa
8aaa
8aaaa
8aaa
8ggg-
=282
8aa
8gg-
8aa
8ggg-
8aaa
8aaaa
=283
8aaa
8ggg-
8aa
8gg-
8aa
8ggg-
=284
8aaa
8aaaa
8aaa
8ggg-
8aa
8gg-
=285
8aa
8ggg-
8aaa
8aaaa
8aaa
8ggg-
=286
8aa
8gg-
8aa
8ggg-
8aaa
8aaaa
=287
8aaa
8ggg-
8aa
8gg-
8aa
8ggg-
=288
8aaa
8aaaa
8aaa
8ggg-
8aa
8gg-
=289
8aa
8ggg-
8aaa
8aaaa
8aaa
8ggg-
=290
8aa
8gg-
8aa
8ggg-
8aaa
8aaaa
=291
8aaa
8ggg-
8aa
8gg-
8aa
8ggg-
=292
8aaa
8aaaa
8aaa
8ggg-
8aa
8gg-
=293
8aa
8ggg-
8aaa
8aaaa
8aaa
8ggg-
=294
8aa
8gg-
8aa
8ggg-
8aaa
8aaaa
=295
8aaa
8ggg-
8aa
8gg-
8aa
8ggg-
=296
8aaa
8aaaa
8aaa
8ggg-
8aa
8gg-
=297
8aa
8ggg-
8aaa
8aaaa
8aaa
8ggg-
=298
8aa
8gg-
8aa
8ggg-
8aaa
8aaaa
=299
8aaa
8ggg-
8aa
8gg-
8aa
8ggg-
=300
8aaa
8aaaa
8aaa
8ggg-
8aa
8gg-
=301
8aa
8ggg-
8aaa
8aaaa
8aaa
8ggg-
=302
8aa
8gg-
8aa
8ggg-
8aa
8aaa
=303
8aa
8gg-
8a
8g-
8a
8gg-
=304
8a
8aa
8a
8g-
8A
8G-
=305
8A
8g-
8A
8a
8A
8G-
=306
8AA
8GG-
8AA
8G-
8r
8AA
=307
8G-
8A
8G-
8AA
8GG-
8AA
=308
8r
8A
8g-
8a
8g-
8A
=309
8G-
8A
8r
8a
8A
8G-
=310
8AA
8G-
8A
8a
8r
8aa
=311
8a
8g-
8A
8g-
8a
8gg-
=312
8a
8aa
8a
8g-
8A
8g-
=313
8a
8gg-
8aa
8aaa
8aa
8gg-
=314
8a
8gg-
8aa
8ggg-
8aaa
8aaaa
=315
8aaa
8ggg-
8aa
8gg-
8aa
8ggg-
=316
8aaa
8aaaa
8aaa
8ggg-
8aa
8gg-
=317
8aa
8ggg-
8aaa
8aaaa
8aaa
8ggg-
=318
8aa
8gg-
8aa
8ggg-
8aaa
8aaaa
=319
8aaa
8ggg-
8aa
8gg-
8aa
8ggg-
=320
8aaa
8aaaa
8aaa
8ggg-
8aa
8gg-
=321
8aa
8ggg-
8aaa
8aaaa
8aaa
8ggg-
=322
8aa
8gg-
8aa
8ggg-
8aaa
8aaaa
=323
8aaa
8ggg-
8aa
8gg-
8aa
8ggg-
=324
8aaa
8aaaa
8aaa
8ggg-
8aa
8gg-
=325
8aa
8ggg-
8aaa
8aaaa
8aaa
8ggg-
=326
8aa
8gg-
8aa
8ggg-
8aaa
8aaaa
=327
8aaa
8ggg-
8aa
8gg-
8aa
8ggg-
=328
8aaa
8aaaa
8aaa
8ggg-
8aa
8gg-
=329
8aa
8ggg-
8aaa
8aaaa
8aaa
8ggg-
=330
8aa
8gg-
8aa
8ggg-
8aa
8aaa
=331
8aa
8gg-
8a
8g-
8a
8gg-
=332
8a
8aa
8a
8g-
8A
8G-
=333
8A
8g-
8A
8a
8A
8G-
=334
8AA
8GG-
8AA
8G-
8r
8AA
=335
8G-
8A
8G-
8AA
8GG-
8AA
=336
8r
8A
8g-
8a
8g-
8A
=337
8G-
8A
8r
8a
8A
8G-
=338
8AA
8G-
8A
8a
8r
8aa
=339
8a
8g-
8A
8g-
8a
8gg-
=340
8a
8aa
8a
8g-
8A
8g-
=341
8a
8gg-
8aa
8aaa
8aa
8gg-
=342
8a
8gg-
8aa
8ggg-
8aaa
8aaaa
=343
8aaa
8ggg-
8aa
8gg-
8aa
8ggg-
=344
8aaa
8aaaa
8aaa
8ggg-
8aa
8gg-
=345
8aa
8ggg-
8aaa
8aaaa
8aaa
8ggg-
=346
8aa
8gg-
8aa
8ggg-
8aaa
8aaaa
=347
8aaa
8ggg-
8aa
8gg-
8aa
8ggg-
=348
8aaa
8aaaa
8aaa
8ggg-
8aa
8gg-
=349
8aa
8ggg-
8aaa
8aaaa
8aaa
8ggg-
=350
8aa
8gg-
8aa
8ggg-
8aaa
8aaaa
=351
8aaa
8ggg-
8aa
8gg-
8aa
8ggg-
=352
8aaa
8aaaa
8aaa
8ggg-
8aa
8gg-
=353
8aa
8ggg-
8aaa
8aaaa
8aaa
8ggg-
=354
8aa
8gg-
8aa
8ggg-
8aaa
8aaaa
=355
8aaa
8ggg-
8aa
8gg-
8aa
8ggg-
=356
8aaa
8aa
8gg
8aa
8aaa
8aaa
=357
8aaaa
8aaa
4aaa
4gg
=358
8aaa
8aaa
8aaaa
8aaa
8aaa
8aa
=359
8r
8aa
8aaa
8aaa
8aaaa
8aaa
=360
8aaa
8aa
8gg
8aa
8aaa
8aaa
=361
8aaaa
8aaa
8aaa
8aa
8gg
8aa
=362
8aaa
8aaa
8aaaa
8aaa
4aaa
=363
4gg
8aaa
8aaa
8aaaa
8aaa
=364
8aaa
8aa
8r
8aa
8aaa
8aaa
=365
8aaaa
8aaa
8aaa
8aa
8gg
8aa
=366
8aaa
8aaa
8aaaa
8aaa
8aaa
8aa
=367
8gg
8aa
8aaa
8aaa
8aaaa
8aaa
=368
4aaa
4gg
8aaa
8aaa
=369
8aaaa
8aaa
8aaa
8aa
8r
8aa
=370
8aaa
8aaa
8aaaa
8aaa
8aaa
8aa
=371
8gg
8aa
8aaa
8aaa
8aaaa
8aaa
=372
8aaa
8aa
8gg
8aa
8aaa
8aaa
=373
8aaaa
8aaa
4aaa
4gg
=374
8aaa
8aaa
8aaaa
8aaa
8aaa
8aa
=375
8r
8aa
8aaa
8aaa
8aaaa
8aaa
=376
8aaa
8aa
8gg
8aa
8aaa
8aaa
=377
8aaaa
8aaa
8aaa
8aa
8gg
8aa
=378
8aaa
8aaa
8aaaa
8aaa
4aaa
=379
4gg
8aaa
8aaa
8aaaa
8aaa
=380
8aaa
8aa
8r
8aa
8aaa
8aaa
=381
8aaaa
8aaa
8aaa
8aa
8gg
8aa
=382
8aaa
8aaa
8aaaa
8aaa
4r
=383
2.r
=384
2.r
=385
2.r
=386
2.r
=387
2.r
=388
2.r
=389
2.r
=390
2.r
=391
2.r
=392
2.r
=393
2.r
=394
2.r
=395
2.r
=396
2.r
=397
2.r
=398
2.r
=399
2.r
=400
2.r
=401
2.r
=402
2.r
=403
2.r
=404
2.r
=405
2.r
=406
2.r
=407
2.r
=408
2.r
=409
2.r
=410
2.r
=411
2.r
=412
2.r
=413
2.r
=414
2.r
=415
2.r
=416
2.r
=417
2.r
=418
2.r
=419
2.r
=420
2.r
=421
4r
4r
16eeee
16gggg-
16eeee
16gggg-
=422
16eeee
16gggg-
16eeee
16gggg-
16eeee
16gggg-
16eeee
16gggg-
16eeee
16gggg-
16eeee
16gggg-
=423
16eeee
16gggg-
16eeee
16gggg-
16eeee
16gggg-
16eeee
16gggg-
16eeee
16gggg-
16eeee
16gggg-
=424
16eeee
16gggg-
16eeee
16gggg-
16eeee
16gggg-
16eeee
16gggg-
16eeee
16gggg-
16eeee
16gggg-
=425
16eeee
16gggg-
16eeee
16gggg-
16eeee
16gggg-
16eeee
16gggg-
4r
=426
2.r
=427
2.r
=428
2.r
=429
4r
16r
16eee
16ggg-
16eee
16ggg-
16eee
16ggg-
16eee
=430
16ggg-
16eee
16ggg-
16eee
16ggg-
16eee
16ggg-
16eee
16ggg-
16eee
16ggg-
16eee
=431
16ggg-
16eee
16ggg-
16eee
16ggg-
16eee
16ggg-
16eee
16ggg-
16eee
16ggg-
16eee
=432
16ggg-
16eee
16ggg-
16eee
16ggg-
16eee
16ggg-
16eee
16ggg-
16eee
16ggg-
16eee
=433
16ggg-
16eee
16ggg-
16eee
4ggg-
4r
=434
2.r
=435
2.r
=436
2.r
=437
4r
16ee
16gg-
16ee
16gg-
16ee
16gg-
16ee
16gg-
=438
16ee
16gg-
16ee
16gg-
16ee
16gg-
16ee
16gg-
16ee
16gg-
16ee
16gg-
=439
16ee
16gg-
16ee
16gg-
16ee
16gg-
16ee
16gg-
16ee
16gg-
16ee
16gg-
=440
16ee
16gg-
16ee
16gg-
16ee
16gg-
16ee
16gg-
16ee
16gg-
16ee
16gg-
=441
16ee
16gg-
16ee
16gg-
16ee
16gg-
16ee
16gg-[
48gg-]
16ee
24gg-
16ee
16gg-
=442
16ee
16gg-
16ee
16gg-
16ee
16gg-
16ee
16gg-
4r
=443
2.r
=444
2.r
=445
2.r
=446
2.r
=447
2.r
=448
2.r
=449
2.r
=450
2.r
=451
2.r
=452
2.r
=453
2.r
=454
2.r
=455
2.r
=456
2.r
=457
2.r
=458
2.r
=459
2.r
=460
2.r
=461
2.r
=462
2.r
=463
2.r
=464
2.r
=465
2.r
=466
2.r
=467
2.r
=468
2.r
=469
2.r
=470
2.r
=471
2.r
=472
2.r
=473
2.r
=474
2.r
=475
2.r
=476
2.r
=477
2.r
=478
2.r
=479
2.r
=480
2.r
=481
2.r
=482
2.r
=483
2.r
=484
2.r
=485
2.r
=486
2.r
=487
4r
4r
16r
16E
16A
16e
=488
4r
2eee
=489
4eee
2ddd-
=490
4ddd-
4aa-
4gg-
=491
4eee
4eee
4eee
=492
2ddd-
4ddd-
=493
4aa-
4gg-
4aaa-
=494
4aaa-
4aaa-
4ggg-[
=495
4ggg-]
4r
4r
=496
12ddd-
12eee
12dddd-
4eeee
12eeee
12dddd-
12eee
=497
12ddd-
12eee
12ddd-
12ee
12dd-
12ee
12dd-
12ee
12aa
=498
2eee
4ddd-
=499
2ddd-
4ddd-
=500
4aa-
4gg-
8d-
8e
=501
8dd-
8ee
8dd-
8ee
8ddd-
8eee
=502
8r
8eee
16ddd-
8ee
16dd-[
16dd-]
8ee
16dd-[
=503
24dd-]
8e
12d-
4r
4aa-
=504
4aa-
2gg-
=505
2.r
=506
4r
4d-
4e
=507
4dd-
4ee
4a-
=508
4a-
2g-[
=509
4g-]
4r
4r
=510
4r
8r
8d-
8e
8dd-
=511
8ee
8dd-
8ee
8ddd-
4eee
=512
4r
4r
4eeee[
=513
4eeee]
4r
4r
==
*-
